X:1
T:Nardis
T:Nardis
C:Miles Davis
Z:All Rights Reserved
L:1/8
M:4/4
K:G
V:1 treble nm="Piano" snm="Pno."
%%MIDI program 0
%%MIDI control 7 100
%%MIDI control 10 64
V:1
 B4 ||"Em7" e8 |"Fmaj7" z ^DEe ^d3 c |"B7" B8- |"Cmaj7" B8 |"Am7" z B3 A2 G2 |"Fmaj7" E3 A- A4 | %7
"Emaj7" (3^GAG =F4 E2- |"Em7" E4 B4 || e8 |"Fmaj7" z ^DEe ^d3 c |"B7" B8- |"Cmaj7" B8 | %13
"Am7" z B3 A2 G2 |"Fmaj7" E3 A- A4 |"Emaj7" (3^GAG =F4 E2- |"Em7" E4 E4 ||"Am7" B6 B2- | %18
"Fmaj7" B4 B,CEG |"Am7" B6 B2- |"Fmaj7" B6 z2 |"Dm7" z e3 d2 c2 |"G7" e4 d4 |"Cmaj7" B6 B2- | %24
"F7" B4 B4 ||"Em7" e8 |"Fmaj7" z ^DEe ^d3 c |"B7" B8- |"Cmaj7" B8 |"Am7" z B3 A2 G2 | %30
"Fmaj7" E3 A- A4 |"Emaj7" (3^GAG =F4 E2- |"Em7" E4 E4 |] %33

